X: 2
T: La Pique Double
M: 6/8
L: 1/8
R: jig
K: G Major
|: ddd B2 B | ddd B3 |[1 GGG A2 A | d2 c B2 G :|[2 GGG A2 c | B2 A G3 ||
|: GGG A2 A | d2 c B2 d |[1 GGG A2 d | B2 A B2 G :|[2 GGG A2 c | B2 A G3 ||
